public/images/icons/shirt.svg

<svg width="18" height="18" viewBox="0 0 18 18" fill="none" xmlns="http://www.w3.org/2000/svg">
<path d="M9.75 15H14.25V12H11.25V10.5H14.25V4.5H12.75V8.25L9.75 7.05V15ZM8.25 15V7.05L5.25 8.25V4.5H3.75V15H8.25ZM5.25 3V2.25H12.75V3H15C15.1989 3 15.3897 3.07902 15.5303 3.21967C15.671 3.36032 15.75 3.55109 15.75 3.75V15.75C15.75 15.9489 15.671 16.1397 15.5303 16.2803C15.3897 16.421 15.1989 16.5 15 16.5H3C2.80109 16.5 2.61032 16.421 2.46967 16.2803C2.32902 16.1397 2.25 15.9489 2.25 15.75V3.75C2.25 3.55109 2.32902 3.36032 2.46967 3.21967C2.61032 3.07902 2.80109 3 3 3H5.25ZM9 6L11.625 3.75H6.375L9 6Z" fill="#B1B1B1"/>
</svg>

<svg width="18" height="18" fill="none" xmlns="http://www.w3.org/2000/svg"><path d="M9.75 15h4.5v-3h-3v-1.5h3v-6h-1.5v3.75l-3-1.2V15zm-1.5 0V7.05l-3 1.2V4.5h-1.5V15h4.5zm-3-12v-.75h7.5V3H15a.75.75 0 01.75.75v12a.75.75 0 01-.75.75H3a.75.75 0 01-.75-.75v-12A.75.75 0 013 3h2.25zM9 6l2.625-2.25h-5.25L9 6z" fill="#B1B1B1"/></svg>
